X: 16032
T: Green Cockade, The
R: reel
M: 4/4
K: Gmajor
|:B3e dBAB|GABc d2 ef|g2 ef gded|BAAG Aedc|
B3e dBAB|GABc d>gef|g2 ef gded|1 BGGF Gedc:|2 BGGF GBga||
|:b3g ~a3f|~g3e d>gef|g2 ef gded|BAAG ABga|
b3g ~a3f|~g3e d>gef|g2 ef gded|1 BGGF GBga:|2 BGGF Gedc|

